X:1
T:Ce fut en montant
T:Nicole Regnes
T:Source : 29 Chansons musicales à 4 parties---Paris---P.Attaignant---1530. Editor: André Vierendeels (13/01/18). Notes : Original clefs : C1, C3, C3, C4 Original note values have been halved Editorial accidentals above the stave Square bracket indicates ligature 
T:Ce fut en montant
T:©
T:©
T:©
C:Nicole Regnes
Z:©
%%score [ 1 [ 2 3 4 ] ]
L:1/8
Q:1/4=120
M:2/2
K:F
V:1 treble nm="Soprano" snm="S"
V:2 treble nm="Alto" snm="T"
V:3 treble-8 nm="Tenor 1" snm="T"
V:4 treble-8 nm="Tenor 2" snm="T"
V:1
 z8 | C2 CC G2 B2 | A2 A2 G4 | D2 DD A2 c2 | B2 B2 A2 d2- | dc B3 AGF | ED d3 cc B/c/ | d4 z4 | %8
w: |Ce fut en mon- tant|les de- grez,|ce fut en mon- tant|les de- grez _|_ _ _ _ _ _|* * ce fut en mon- *|tant|
 B2 BB A2 z2 | G2 GG F2 F2 | G2 E2 D4 | z4 G2 GG | F2 F2 G2 E2 | D2 G3 F FE/F/ | G4 z4 | %15
w: que ie vous fis,|que ie vous fis à|mon plai- sir,|que ie vous|fis à mon plai-|sir, que ie vous _ _|fis,|
 z2 B2 BB A2 | G4 z2 G2 | GG F2 G3 A | Bc d4 c2 | d4 z2 d2 | c2 A2 B4 | A3 G/A/ B2 A2- | %22
w: et ie'o- se di-|re, et|ie'o- se di- * re|sans- * * men-|tir que|vous le pris-|* * * tes fort-|
 AG G4 F2 |: G3 F/E/ D4 | z2 d2 c2 A2 | B4 A4 | z4 z2 d2 | c2 A2 B4 | A3 G/A/ B2 A2- | AG G4 F2 :| %30
w: * * * à|gré, _ _ _|et ie'o- se|di- re|qie|vous le pris-|* * * tes fort|_ _ _ à|
 G8 |] %31
w: gré|
V:2
 G,2 G,G, D2 F2 | E2 E2 D4- | D4 z2 G,2 | G,G, D2 F2 E2 | E2 D3 CB,A, | B,G, G3 A B2 | c2 A2 A4 | %7
w: Ce fut en mon- tant|jes de- grez,|_ ce|fut en mon- tant les|degrez _ _ _ _|_ _ ce _ _|fut en mon-|
 F4 z4 | G2 GG F2 D2 | D2 C2 D4 | z4 G2 GG | F2 D2 D2 C2 | DCA,B, CB, G,2- | G,A,B,C D4 | %14
w: tant|que ie vous fis, à|mon plai- sir,|que ie vous|fis à mon plai-|sir, _ _ _ _ _ _|_ _ _ _ _|
 z4 G2 GG | F2 G2 z4 | D2 CB, A,2 G,A, | B,C D4 C2 | D4 A,4 | z2 D4 B,2 | C2 D4 G,2 | %21
w: et ie'o- se|di- re,|et i'- o- se di- *|re _ sans men-|tir, _|que vous|le pris- tes|
 D2 C2 B,2 _E2- | EDB,C D4 |: D4 z2 D2- | D2 B,2 C2 A,2 | G,A,B,C D4 | z2 D4 B,2 | C2 D4 G,2 | %28
w: fort _ _ _|_ _ _ _ à|gré, et|_ ie'o- se di-|* * * * re,|que vous|le pris- tes|
 D2 C2 B,2 _E2- | EDB,C D4 :| D8 |] %31
w: fort _ _ _|_ _ _ _ à|gré|
V:3
 z8 | z4 G2 GG | d2 f2 e2 e2 | d4 z4 | g2 gg f2 g2 | d2 d2 G2 g2 | f3 e/d/ e4 | d8 | z2 d2 dd A2 | %9
w: |Ce fut en|mon- tant les de-|grez,|ce fut en mon- tant|les de- grez, les|de- * * *|grez,|que ie vous fis|
 B2 c2 A4 | G4 z2 d2 | dd A2 B2 c2 | A4 G2 c2- | cBBA/G/ A4 | G8 | z2 g2 gg f2 | g4 z2 d2 | %17
w: à mon plai-|sir, que|ie vous fis à mon|plai- sir, _|_ _ _ _ _ _||et ie'o- se di-|re, et|
 cB A2 G2 g2- | gffe/d/ e4 | d4 z2 d2 | e2 f2 g4 | f3 e d2 c2 | B2 AG A4 |: G4 z4 | z2 d2 e2 f2 | %25
w: ie'o- se di- re sans|_ _ _ _ _ men-|tir, que|vous le pris-|* * * tes|fort _ _ à|gré,|et ie'o- se|
 g4 f4 | z4 z2 d2 | e2 f2 g4 | f3 e d2 c2 | B3 A/G/ A4 :| G8 |] %31
w: di- re,|que|vous le pris-|* * * tes|for _ _ à|gré.|
V:4
 z8 | z8 | z4 C2 CC | G2 B2 A2 A2 | G4 z4 | G2 GG d2 G2 | c2 d2 A4 | D4 z4 | G2 GG D2 F2 | %9
w: ||Ce fut en|mon- tant les de-|grez,|ce fut en mon- tant|les _ de-|grez,|que ie vous fis à|
 G2 E2 D4 | z4 G2 GG | D2 F2 G2 E2 | DEFE CDEF | G2 _E2 D4 | z4 B2 BB | A2 G2 z4 | G2 GG F2 G2- | %17
w: mon plai- sir,|que ie vois|fis à mon plai-||* * sir,|et ie'o- se|di- re,|et ie'o- se di- re,|
 G2 F2 _E4 | D4 z2 A2 | F2 G2 B4 | A2 D2 G3 F | DE F2 G2 C2 | _E4 D4 |: z2 G2 F2 G2 | B4 A4 | %25
w: _ sans men-|tir, que|vous le pris-||* * * tes fort|à gré,|et ie'o- se|di- re,|
"^#" z4 z2 A2 | F2 G2 B4 | A2 D2 G3 F | DE F2 G2 C2 | _E4 D4 :| G8 |] %31
w: que|vous le pris-||* * * tes fort|à gré,|(gré.)|

